**kern	**text	**kern	**text	**kern	**text	**kern	**text	**kern	**text	**cdata-harm
*staff5	*staff5	*staff4	*staff4	*staff3	*staff3	*staff2	*staff2	*staff1	*staff1	*
=1-	=1-	=1-	=1-	=1-	=1-	=1-	=1-	=1-	=1-	=1-
*clefF4	*	*clefGv2	*	*clefGv2	*	*clefG2	*	*clefG2	*	*
*k[b-]	*	*k[b-]	*	*k[b-]	*	*k[b-]	*	*k[b-]	*	*
*M4/4	*	*M4/4	*	*M4/4	*	*M4/4	*	*M4/4	*	*
1r	.	1r	.	1r	.	2r	.	1ff\	O	<HOMlib_3v
.	.	.	.	.	.	2d/	O	.	.	.
=2	=2	=2	=2	=2	=2	=2	=2	=2	=2	.
1r	.	1r	.	1r	.	2g/	de	2dd\	de	.
.	.	.	.	.	.	[2a/	l'a-	[2cc\	l'a-	.
=3	=3	=3	=3	=3	=3	=3	=3	=3	=3	.
1r	.	1r	.	1r	.	2a/]	.	2cc\]	.	.
.	.	.	.	.	.	4a/	ni-	4cc\	ni-	.
.	.	.	.	.	.	4g/	ma	4b-\	ma	.
=4	=4	=4	=4	=4	=4	=4	=4	=4	=4	.
1r	.	4r	.	1r	.	2f/	mia	2a/	mia	.
.	.	[4d\	gio-	.	.	.	.	.	.	.
.	.	8d\L]	.	.	.	2r	.	4.dd\	gio-	.
.	.	8c\J	.	.	.	.	.	.	.	.
.	.	8B-/L	.	.	.	.	.	.	.	.
.	.	8A/J	.	.	.	.	.	8cc\	.	.
=5	=5	=5	=5	=5	=5	=5	=5	=5	=5	.
1r	.	8B-\L	.	1r	.	4.f/	gio-	8dd\L	.	.
.	.	8c\J	.	.	.	.	.	8ee\J	.	.
.	.	8d\L	.	.	.	.	.	[4ff\	.	.
.	.	8e\J	.	.	.	8g/	.	.	.	.
.	.	2f\	.	.	.	8a/L	.	8ff\L]	.	.
.	.	.	.	.	.	8b-/J	.	16ee\L	.	.
.	.	.	.	.	.	.	.	16dd\JJ	.	.
.	.	.	.	.	.	4a/	ia	4cc\	ia	.
=6	=6	=6	=6	=6	=6	=6	=6	=6	=6	.
1r	.	4f\	iain-	1r	.	4a/	in-	4cc\	in-	.
.	.	4g\	fi-	.	.	2b-\	fi-	4b-\	fi-	.
.	.	2f\	ni-	.	.	.	.	2cc\	ni-	.
.	.	.	.	.	.	4a/	ni-	.	.	.
=7	=7	=7	=7	=7	=7	=7	=7	=7	=7	.
1r	.	2B-\	ta	1r	.	2b-\	ta	2dd\	ta	>
.	.	4f\	Cu-	.	.	4a/	Cu-	4cc\	Cu-	<HOM_3v
.	.	8f\L	ra	.	.	8a/L	ra	8cc\L	ra	.
.	.	8e\J	di	.	.	8g/J	di	8cc\J	di	.
=8	=8	=8	=8	=8	=8	=8	=8	=8	=8	.
1r	.	4f\	ques-	1r	.	4a/	ques-	4cc\	ques-	.
.	.	4g\	to	.	.	4g/	to	4b-\	to	.
.	.	[2d\	co-	.	.	2f#/	co-	[2a/	co-	.
=9	=9	=9	=9	=9	=9	=9	=9	=9	=9	.
1r	.	2d\]	.	1r	.	2f/	.	2a/]	.	.
.	.	2d\	re	.	.	2f/	re	2a/	re	>
=10	=10	=10	=10	=10	=10	=10	=10	=10	=10	.
1D\	Pian-	1f#\	Pian-	1d\	Pian-	1a/	Pian-	1r	.	<HOMlib_5v
=11	=11	=11	=11	=11	=11	=11	=11	=11	=11	.
2D\	ta	2f\	ta	2d\	ta	2a/	ta	1dd\	Pian-	.
2D\	gran	2f\	gran	2d\	gran	2a/	gran	.	.	.
=12	=12	=12	=12	=12	=12	=12	=12	=12	=12	.
1G\	tem-	2g\	tem-	1d\	tem-	2.bn\	tem-	2dd\	ta	.
.	.	2g\	po	.	.	.	.	2dd\	gran	.
.	.	.	.	.	.	8a/L	.	.	.	.
.	.	.	.	.	.	8b/J	.	.	.	.
=13	=13	=13	=13	=13	=13	=13	=13	=13	=13	.
1C/	po	4g\	nel	1c\	po	2cc\	.	1ee\	tem-	.
.	.	4f\	mio	.	.	.	.	.	.	.
.	.	4e\	sen-	.	.	2g/	po	.	.	.
.	.	4d\	no	.	.	.	.	.	.	.
=14	=14	=14	=14	=14	=14	=14	=14	=14	=14	.
2F\	nel	2.c\	dri-	1r	.	2a/	nel	4ff\	po	.
.	.	.	.	.	.	.	.	2cc\	nel	.
4E\	mio	.	.	.	.	4g/	mio	.	.	.
[4D\	sen-	4d\	ta	.	.	[4f/	sen-	4b-\	mio	.
=15	=15	=15	=15	=15	=15	=15	=15	=15	=15	.
4D\]	.	4d\	nel	4r	.	4f/]	.	2.a/	sen-	.
4C#/	no	4e\	mio	4a\	nel	4e/	no	.	.	.
8D\L	dri-	[2A/	se-	2f\	mio	4d/	dri-	.	.	.
8E\J	.	.	.	.	.	.	.	.	.	.
8F\L	.	.	.	.	.	4a/	ta	4dd\	no	.
8G\J	.	.	.	.	.	.	.	.	.	.
=16	=16	=16	=16	=16	=16	=16	=16	=16	=16	.
1A\	.	4A/]	.	4e\	se-	4r	.	4cc#\	dri-	.
.	.	4f\	no	4d\	no	4a/	no-	2dd\	.	.
.	.	2e\	dri-	2e\	dri-	2a/	dri-	.	.	.
.	.	.	.	.	.	.	.	4cc#\	.	.
=17	=17	=17	=17	=17	=17	=17	=17	=17	=17	.
1D\	ta	1a\	ta	1d\	ta	1f#/	ta	1dd\	ta	>
=18	=18	=18	=18	=18	=18	=18	=18	=18	=18	.
2r	.	2r	.	2r	.	1r	.	1r	.	<ANTIF_2v+CON_2v
2G\	Por-	2d\	Por-	2B-\	Por-	.	.	.	.	.
=19	=19	=19	=19	=19	=19	=19	=19	=19	=19	.
4G\	gon	4d\	gon-	4B-\	gon	4r	.	2r	.	.
4D\	l'u-	4d\	l'u-	4B-\	l'u-	4f/	Ques-	.	.	.
4E-\	sa-	4B-\	sa-	4G/	sa-	4g/	tioc-	4r	.	.
4C/	ta	4e\	ta	4c\	ta-	4a/	chi	4cc\	Ques-	.
=20	=20	=20	=20	=20	=20	=20	=20	=20	=20	.
2BB-/	ai-	2d\	ai-	2F/	ai-	2b-\	las-	4dd\	tioc-	.
.	.	.	.	.	.	.	.	4ee\	chi	.
4F\	ta	2c\	ta	4A/	ta	2a/	si	2ff\	las-	.
4F\	Ques-	.	.	4A/	Ques-	.	.	.	.	.
=21	=21	=21	=21	=21	=21	=21	=21	=21	=21	.
4G\	tioc-	1r	.	4B-\	tioc-	1r	.	2dd\	si	.
4A\	chi	.	.	4c\	chi	.	.	.	.	.
2B-\	las-	.	.	2d\	las-	.	.	2r	.	.
=22	=22	=22	=22	=22	=22	=22	=22	=22	=22	.
2G\	si	2g\	Por-	2d\	si	2b-\	Por-	2dd\	Por-	.
2r	.	4g\	gon	2r	.	4b-\	gon	4dd\	gon	.
.	.	4d\	l'u-	.	.	4b-\	l'u-	4dd\	l'u-	.
=23	=23	=23	=23	=23	=23	=23	=23	=23	=23	.
1r	.	4e-\	sa-	2r	.	4g/	sa-	4b-\	sa	.
.	.	4c\	ta	.	.	4cc\	taai	4ee\	ta-	.
.	.	2B-\	ai-	4r	.	2f/	ta	2dd\	ai-	.
.	.	.	.	4B-\	ques-	.	.	.	.	.
=24	=24	=24	=24	=24	=24	=24	=24	=24	=24	.
2F\	Ques	2c\	ta	4A/	tio-	4f/	ques-	2cc\	ta	><ANTIFlib_2v+CON_1v
.	.	.	.	4B-\	chi	4f/	tioc-	.	.	.
4C/	tioc-	4r	.	4c\	las-	4e/	chi	4r	.	.
4D\	chi	4F/	Ques-	4B-\	si	4f/	las-	4b-\	Ques-	.
=25	=25	=25	=25	=25	=25	=25	=25	=25	=25	.
2E-\	las-	4G/	tioc-	2r	.	2g/	si	4b-\	tioc-	.
.	.	4A/	chi	.	.	.	.	4cc\	chi	.
2BB-/	si&agrave;	2B-\	las-	4r	.	4f/	&agrave;	2dd\	las-	.
.	.	.	.	4f\	&agrave;	4d/	la	.	.	.
=26	=26	=26	=26	=26	=26	=26	=26	=26	=26	.
2F\	la	2A/	si	2f\	la	4a/	tua	2cc\	si&agrave;	.
.	.	.	.	.	.	[4a/	sa-	.	.	.
2D\	tua	4r	.	2a\	tua	8a/L]	.	2dd\	la	.
.	.	.	.	.	.	8g/J	.	.	.	.
.	.	4d\	a	.	.	8f/L	.	.	.	.
.	.	.	.	.	.	8e/J	.	.	.	.
=27	=27	=27	=27	=27	=27	=27	=27	=27	=27	.
2G\	sa-	4B-\	la	2g\	sa-	2d/	.	4dd\	tua	.
.	.	4d\	tua	.	.	.	.	2b-\	sac	.
2E-\	cra	2e\	sa-	2G/	cra	2g/	cra	.	.	.
.	.	.	.	.	.	.	.	[4cc\	cra-	.
=28	=28	=28	=28	=28	=28	=28	=28	=28	=28	.
1F\	fron-	2d\	cra	4A/	fron-	1f/	fron-	4cc\]	.	.
.	.	.	.	4B-\	.	.	.	2b-\	fron-	.
.	.	2c\	fron-	2c\	.	.	.	.	.	.
.	.	.	.	.	.	.	.	4a/	.	.
=29	=29	=29	=29	=29	=29	=29	=29	=29	=29	.
1BB-/	de	2B-\	de	1d\	de	1f/	de	2b-\	de	>
.	.	4r	.	.	.	.	.	4r	.	.
.	.	4B-\	Che	.	.	.	.	4dd\	Che	<CON_2v+1doub
=30	=30	=30	=30	=30	=30	=30	=30	=30	=30	.
1r	.	4A/	con-	1r	.	4r	.	4cc\	con-	.
.	.	4F/	ver-	.	.	4f/	Che	4a/	ver-	.
.	.	4G/	ti-	.	.	4e-/	con-	4b-\	ti-	.
.	.	4A/	tiin	.	.	4c/	ver	4cc\	tiin	.
=31	=31	=31	=31	=31	=31	=31	=31	=31	=31	.
1r	.	2B-\	on-	1r	.	4d/	ti	2f/	on-	.
.	.	.	.	.	.	4e/	tiin	.	.	.
.	.	2B-\	de	.	.	2f/	on-	2d/	de	.
=32	=32	=32	=32	=32	=32	=32	=32	=32	=32	.
4B-\	So-	4d\	So-	2r	.	2f/	de	2r	.	><ANTIF_2v
8B-\L	no	8d\L	no	.	.	.	.	.	.	.
8A\J	mer-	8c\J	mer-	.	.	.	.	.	.	.
[2G\	c&egrave;	[2B-\	c&egrave;	4d\	So-	4b-\	So-	4dd\	So-	.
.	.	.	.	8B-\L	no	8b-/L	no-	8dd\L	no	.
.	.	.	.	8c\J	mer-	8a/J	mer-	8cc\J	mer-	.
=33	=33	=33	=33	=33	=33	=33	=33	=33	=33	.
2G\]	.	2B-\]	.	2d\	c&egrave;	2g/	c&egrave;	2b-\	c&egrave;	.
2C/	d'A-	2c\	d'A-	2c\	d'A-	2g/	d'A-	2ee\	d'A-	.
=34	=34	=34	=34	=34	=34	=34	=34	=34	=34	.
1G\	mo-	2d\	mo-	1B-\	mo-	1g/	mo-	1dd\	mo-	.
.	.	2d\	re	.	.	.	.	.	.	.
=35	=35	=35	=35	=35	=35	=35	=35	=35	=35	.
2D\	re	4r	.	2A/	re	2f#/	re	1dd\	re	>
.	.	4d\	A	.	.	.	.	.	.	<HOMlib_3v+CON_1v
4r	.	2f#\	ci&ograve;	4r	.	4r	.	.	.	.
4D\	A	.	.	4d\	A	4a/	A	.	.	.
=36	=36	=36	=36	=36	=36	=36	=36	=36	=36	.
2C/	ci&ograve;	4.g\	pre-	2e\	ci&ograve;	4cc\	ci&ograve;	1r	.	.
.	.	.	.	.	.	[4cc\	pre-	.	.	.
.	.	8g\	da	.	.	.	.	.	.	.
4.c\	pre-	4g\	do-	4.e\	pre-	8cc\L]	.	.	.	.
.	.	.	.	.	.	8cc\J	da	.	.	.
.	.	[4e\	lor-	.	.	4g/	do-	.	.	.
8c\	da	.	.	8e\	da	.	.	.	.	.
=37	=37	=37	=37	=37	=37	=37	=37	=37	=37	.
4c\	do-	4e\]	.	4g\	do-	2cc\	lor	1r	.	.
4A\	lor	[4f\	vi-	4c\	lor	.	.	.	.	.
2B-\	vi-	8f\L]	.	4.d\	vi-	4.b-\	vi-	.	.	.
.	.	8f\J	tae	.	.	.	.	.	.	.
.	.	4d\	vi-	.	.	.	.	.	.	.
.	.	.	.	8e\	.	16a/LL	.	.	.	.
.	.	.	.	.	.	16g/JJ	.	.	.	.
=38	=38	=38	=38	=38	=38	=38	=38	=38	=38	.
2F\	ta	2c\	go-	8f\L	.	8a/L	.	1r	.	.
.	.	.	.	8g\J	.	8b-/J	.	.	.	.
.	.	.	.	4a\	.	4cc\	.	.	.	.
4r	.	2d\	re	4a\	ta,	4f/	ta	.	.	.
[4D\	vi-	.	.	[4a\	vi-	[4f/	vi-	.	.	.
=39	=39	=39	=39	=39	=39	=39	=39	=39	=39	.
8D\L]	.	4r	.	8a\L]	.	8f/L]	.	2r	.	.
8D\J	tae	.	.	8a\J	tae	8f/J	tae	.	.	.
4B-\	vi-	4d\	E	4g\	vi-	4g/	vi-	.	.	><<CON_5v
2A\	go-	4e\	tu	4c\	go-	2a/	go-	4r	.	.
.	.	4f#\	cru-	4c\	re	.	.	4a/	E	.
=40	=40	=40	=40	=40	=40	=40	=40	=40	=40	.
2G\	re	2.g\	del	4r	.	2d/	re	2b-\	tu	>
.	.	.	.	4B-\	E	.	.	.	.	.
2r	.	.	.	4c\	tu	2r	.	2r	.	.
.	.	4f\	non	4d\	cru-	.	.	.	.	.
=41	=41	=41	=41	=41	=41	=41	=41	=41	=41	.
2r	.	4e-\	vuo-	2G/	del	2b-\	non	4r	.	.
.	.	4d\	i	.	.	.	.	4dd\	E	.
4r	.	2r	.	4r	.	2a/	vuo-	4ee\	tu	.
4F\	non	.	.	4A/	E	.	.	4ff\	cru-	.
=42	=42	=42	=42	=42	=42	=42	=42	=42	=42	.
2E\	vuo-	4r	.	4Bn\	tu	2g/	i	2.gg\	del	.
.	.	4G/	E	4c#\	cru-	.	.	.	.	.
2D\	i	4A/	tu	2d\	del	4r	.	.	.	.
.	.	4B-\	cru-	.	.	4d/	E	4ff\	non-	.
=43	=43	=43	=43	=43	=43	=43	=43	=43	=43	.
4r	.	4c\	del	4A/	non	4e/	tu	2ee\	vuo-	.
4A\	e	4c\	E	2a\	vuo-	4f/	cru-	.	.	.
4B-\	tu	4d\	tu	.	.	4.g/	del	2dd\	i	.
4c\	cru-	4e\	cru-	4g\	i	.	.	.	.	.
.	.	.	.	.	.	8cc\	non	.	.	.
=44	=44	=44	=44	=44	=44	=44	=44	=44	=44	.
2d\	del	2f\	del	1r	.	4b-\	vuo-	1r	.	.
.	.	.	.	.	.	4a/	i	.	.	.
4r	.	4e\	non	.	.	2r	.	.	.	.
4c\	non	[4a\	vuo-	.	.	.	.	.	.	.
=45	=45	=45	=45	=45	=45	=45	=45	=45	=45	.
2B-\	vuo-	8a\L]	.	1r	.	1r	.	1r	.	.
.	.	16g\L	.	.	.	.	.	.	.	.
.	.	16f\JJ	.	.	.	.	.	.	.	.
.	.	4g\	.	.	.	.	.	.	.	.
2A\	i	2a\	i	.	.	.	.	.	.	>>
=46	=46	=46	=46	=46	=46	=46	=46	=46	=46	.
3F\	Ch'io	3A/	Ch'io	3c\	Ch'io	3f/	C'hio	3a/	Ch'io	<HOM_5v
3D\	vi-	3F/	vi-	3d\	vi-	3f/	vi-	3a/	vi-	.
3E\	va&agrave;	3G/	va&agrave;	[3c\	va&agrave;	3e/	va&agrave;	3cc\	va&agrave;	.
=47	=47	=47	=47	=47	=47	=47	=47	=47	=47	.
[2F\	l'om-	[2A/	l'om-	3c\]	.	[2a/	l'om-	[2cc\	l'om-	.
.	.	.	.	3f\	bra	.	.	.	.	.
6F\]	.	6A/]	.	.	.	6a/]	.	6cc\]	.	.
3G\	bra	3B-\	bra	3d\	de	3g/	bra	3b-\	bra	.
=48	=48	=48	=48	=48	=48	=48	=48	=48	=48	.
3F\	de	3c\	de	3f\	bei-	3cc\	de	3a/	de	.
3F\	bel	3c\	bei	3f\	ra-	3a/	bei	3ff\	bei	.
3D\	ra-	3d\	ra-	3F/	mi	6a/	ra-	3ff\	ra-	.
.	.	.	.	.	.	6a/	mi	.	.	.
=49	=49	=49	=49	=49	=49	=49	=49	=49	=49	.
3G\	mi	3d\	mi	3B-\	tuo-	[2g/	tuo-	3dd\	mi	.
[6D\	tuo-	[6d\	tuo-	[6A/	.	.	.	[6dd\	tuo-	.
2D\]	.	2d\]	.	2A/]	.	6g/]	.	2dd\]	.	.
.	.	.	.	.	.	3f/	.	.	.	.
=50	=50	=50	=50	=50	=50	=50	=50	=50	=50	.
2G\	i	1d\	i	2G/	i	2g/	i	2bn\	i	>
4r	.	.	.	4r	.	2r	.	2r	.	.
4G\	E	.	.	4Bn\	E	.	.	.	.	<CON_5v_rep
=51	=51	=51	=51	=51	=51	=51	=51	=51	=51	.
4A\	tu	1r	.	4c\	tu	4r	.	1r	.	.
4Bn\	cru-	.	.	4d\	cru-	2g/	E	.	.	.
2c\	del	.	.	4e\	del	.	.	.	.	.
.	.	.	.	4e\	e	[4a/	tu-	.	.	.
=52	=52	=52	=52	=52	=52	=52	=52	=52	=52	.
4r	.	2d\	E	4f\	tu	4a/]	.	2r	.	.
4B-\	non	.	.	4g\	cru-	4b-\	cru-	.	.	.
2A\	vuo-	4e\	tu	2a\	del	4cc\	del	4r	.	.
.	.	4f#\	cru-	.	.	4c/	e	4cc\	non	.
=53	=53	=53	=53	=53	=53	=53	=53	=53	=53	.
2G\	i	2g\	del	2r	.	4d/	tu	2b-\	vuo-	.
.	.	.	.	.	.	4e/	cru-	.	.	.
2r	.	4r	.	4r	.	2f/	del	2a/	i	.
.	.	4d\	E	4f\	non	.	.	.	.	.
=54	=54	=54	=54	=54	=54	=54	=54	=54	=54	.
2r	.	2G/	tu	4e-\	vuo-	2b-\	non	4r	.	.
.	.	.	.	4d\	i	.	.	4dd\	E	.
4r	.	4r	.	2r	.	2a/	vuo-	4ee\	tu	.
4F\	non	4A/	E	.	.	.	.	4ff\	cru-	.
=55	=55	=55	=55	=55	=55	=55	=55	=55	=55	.
2E\	vuo-	4Bn\	tu	4r	.	2g/	i	2.gg\	del	.
.	.	4c#\	cru-	4G/	E	.	.	.	.	.
2D\	i	2d\	del	4A/	tu	4r	.	.	.	.
.	.	.	.	4B-\	cru-	4d/	E	4ff\	non-	.
=56	=56	=56	=56	=56	=56	=56	=56	=56	=56	.
4r	.	4A/	non	4c\	del	4e/	tu	2ee\	vuo-	.
4A\	E	2a\	vuo-	4c\	E	4f/	cru-	.	.	.
4B-\	tu	.	.	4d\	tu	4.g/	del	2dd\	i	.
4c\	cru-	4g\	i	4e\	cru-	.	.	.	.	.
.	.	.	.	.	.	8cc\	non	.	.	.
=57	=57	=57	=57	=57	=57	=57	=57	=57	=57	.
2d\	del	1r	.	2f\	del	4b-\	vuo-	1r	.	.
.	.	.	.	.	.	4a/	i	.	.	.
4r	.	.	.	4e\	non	2r	.	.	.	.
4c\	non	.	.	[4a\	vuo-	.	.	.	.	.
=58	=58	=58	=58	=58	=58	=58	=58	=58	=58	.
2B-\	vuo-	1r	.	8a\L]	.	1r	.	1r	.	.
.	.	.	.	16g\L	.	.	.	.	.	.
.	.	.	.	16f\JJ	.	.	.	.	.	.
.	.	.	.	4g\	.	.	.	.	.	.
2A\	i	.	.	2a\	i	.	.	.	.	>
=59	=59	=59	=59	=59	=59	=59	=59	=59	=59	.
3F\	Ch'io	3c\	Ch'io	3A/	Ch'io	3f/	Ch'io	3a/	Ch'io	<HOM_5v_rep
3D\	vi-	3d\	vi-	3F/	vi-	3f/	vi-	3a/	vi-	.
3E\	va&agrave;	[3c\	va&agrave;	3G/	va&agrave;	3e/	va&agrave;	3cc\	va&agrave;	.
=60	=60	=60	=60	=60	=60	=60	=60	=60	=60	.
[2F\	l'om-	3c\]	.	[2A/	l'om-	[2a/	l'om-	[2cc\	l'om-	.
.	.	3f\	bra	.	.	.	.	.	.	.
6F\]	.	.	.	6A/]	.	6a/]	.	6cc\]	.	.
3G\	bra	3d\	de	3B-\	bra	3g/	bra	3b-\	bra	.
=61	=61	=61	=61	=61	=61	=61	=61	=61	=61	.
3F\	dei	3f\	bei	3c\	de	3cc\	de	3a/	de	.
3F\	ra-	3f\	ra-	3c\	bei	3a/	bei	3ff\	bei	.
3D\	mi	3F/	mi	3d\	ra-	6a/	ra-	3ff\	ra-	.
.	.	.	.	.	.	6a/	mi	.	.	.
=62	=62	=62	=62	=62	=62	=62	=62	=62	=62	.
3G\	tuo-	3B-\	tuo-	3d\	mi	[2g/	tuo-	3dd\	mi	.
[6D\	.	[6A/	.	[6d\	tuo-	.	.	[6dd\	tuo-	.
2D\]	.	2A/]	.	2d\]	.	6g/]	.	2dd\]	.	.
.	.	.	.	.	.	3f/	.	.	.	.
=63	=63	=63	=63	=63	=63	=63	=63	=63	=63	.
1G\	i.	1G/	i.	1Bn\	i.	1g/	i.	1dd\	i.	>
==	==	==	==	==	==	==	==	==	==	==
*-	*-	*-	*-	*-	*-	*-	*-	*-	*-	*-